X:116
T:Arabia
M:2/4
L:1/8
Q:180
C:Trad.
S:Caniadau Seion 1840
R:Hymn
K:D
A2 | D2 E2 | F2 G/A/B | A2 G2 | F3 A | B2 A2 | G2 F2
| F4 | E3 A | A2 B2 | A3 A | AF B>A | A3 A |
D2 E2 | FA GF | F4 | E3 A | A2 B2 | A3 A | Bc d
2 | c3 B | Ad BG | F2 E2 | D2 ||
